!!!COM:	Ockeghem, Johannes
!!!CDT:	~1425-1497/02/06
!!!OPR:	Missa Caput
!!!ONM:	5
!!!OTL:	Agnus Dei
!!!AGN:	Mass; Agnus Dei
!!!SCT:	Ock1003e
!!!voices:	4
!!!voices-OPR:	4
**kern	**kern	**kern	**kern
*staff4	*staff3	*staff2	*staff1
*Ivox	*Ivox	*Ivox	*Ivox
*I"Tenor1	*I"Tenor2	*I"Contratenor	*I"Discantus
*I'T1	*I'T2	*I'Ct	*I'D
*clefF4	*clefGv2	*clefGv2	*clefG2
*!k[]	*k[]	*k[]	*k[]
*M3/1	*M3/1	*M3/1	*M3/1
*met(O)	*met(O)	*met(O)	*met(O)
=1-	=1-	=1-	=1-
!!section: Agnus Dei I
!!!OMD: Agnus Dei I
0.r	0.r	0.A	0.a
=2	=2	=2	=2
0.r	0.r	1c	1g
.	.	1.d	1.f
.	.	2c\	2e/
=3	=3	=3	=3
0.r	0.r	1e	2e/
.	.	.	2c/
.	.	2f\	2d/
.	.	1d	2f/
.	.	.	1e
.	.	2c#i\	.
=4	=4	=4	=4
0.r	0.r	0d	2r
.	.	.	2b\
.	.	.	2a/
.	.	.	2dd\
.	.	2A/	2cc\
.	.	2c\	[2a/
=5	=5	=5	=5
0.r	0.r	1B	2a/]
.	.	.	2g/
.	.	1A	2a/
.	.	.	4g/
.	.	.	4a/
.	.	1c	2g/
.	.	.	2e/
=6	=6	=6	=6
0.r	0.r	2G/	2d/
.	.	2A/	2f/
.	.	2c\	2e/
.	.	1c	2c/
.	.	.	1d
.	.	2B\	.
=7	=7	=7	=7
!!linebreak:original
0.r	0.r	0.c	0.c
=8	=8	=8	=8
0.r	0.r	1c	0c
.	.	1e	.
.	.	2d\	2B/
.	.	2e\	[2c/
=9	=9	=9	=9
0.r	0.r	1c	2c/]
.	.	.	2e/
.	.	2B\	2d/
.	.	2c\	2c/
.	.	1d	2.f/
.	.	.	4g/
=10	=10	=10	=10
0.r	0.r	1A	4a/
.	.	.	4b-i\
.	.	.	1a
.	.	1B	.
.	.	.	2g/
.	.	1A	1a
=11	=11	=11	=11
0.r	0.r	1.e	2g/
.	.	.	2b\
.	.	.	2cc\
.	.	2d\	2.dd\
.	.	1f	.
.	.	.	4cc\
.	.	.	2a/
=12	=12	=12	=12
0.r	0.r	1.e	2g/
.	.	.	1cc
.	.	2d\	1b
.	.	1c	.
.	.	.	2a/
=13	=13	=13	=13
0.r	0.E	2B\	1.b
.	.	1.G	.
.	.	.	2g/
.	.	2B\	1g
.	.	2c\	.
=14	=14	=14	=14
!!linebreak:original
[0.BB	0D	0.d	1r
.	.	.	1r
.	2.G/	.	[1b
.	4A/	.	.
=15	=15	=15	=15
0.BB]	2B\	0.r	2b\]
.	1G	.	1dd
.	2D/	.	2cc\
.	2E/	.	2.b\
.	2G/	.	.
.	.	.	4a/
=16	=16	=16	=16
[0.D	1.F	0.d	1.a
.	2D/	.	1f
.	2.F/	.	.
.	.	.	2d/
.	4G/	.	.
=17	=17	=17	=17
0.D]	1A	1D	2.f/
.	.	.	4g/
.	1D	2.F/	1a
.	.	4G/	.
.	1r	2A/	1d
.	.	2B\	.
=18	=18	=18	=18
[0.C	[0.AA	2c\	0.r
.	.	1A	.
.	.	4G/	.
.	.	4F/	.
.	.	2E/	.
.	.	2F/	.
=19	=19	=19	=19
0.C]	0.AA]	2E/	0.r
.	.	1A	.
.	.	2F/	.
.	.	1E	.
=20	=20	=20	=20
0.D	0A	0.D	1.f
.	.	.	1a
.	1d	.	.
.	.	.	4g/
.	.	.	4f/
=21	=21	=21	=21
!!pagebreak:original
1r	1c	1E	1e
1r	1.B	1G	0d
1BB	.	1D	.
.	2G/	.	.
=22	=22	=22	=22
0.E	0G	0.r	2g/
.	.	.	2a/
.	.	.	1.b
.	1B	.	.
.	.	.	2g/
=23	=23	=23	=23
0G	2G/	1.B	2g/
.	1d	.	4f/
.	.	.	4e/
.	.	.	2d/
.	2B\	2c\	1g
1D	1A	1d	.
.	.	.	2f/
=24	=24	=24	=24
1E	1.G	0B	2.g/
.	.	.	4f/
1BB	.	.	1d
.	2F/	.	.
1D	1D	1A	1r
=25	=25	=25	=25
0.D	1r	0d	0a
.	0F	.	.
.	.	1B	1f
=26	=26	=26	=26
1C	0E	[0.c	1g
0AA	.	.	2.a/
.	.	.	4g/
.	[1A	.	1e
=27	=27	=27	=27
1r	2A/]	1c]	1f
.	2F/	.	.
1r	2.G/	0B	2d/
.	.	.	2e/
.	4F/	.	.
1BB	1D	.	2.g/
.	.	.	4f/
=28	=28	=28	=28
!!linebreak:original
[0.D	2.F/	1A	1d
.	4G/	.	.
.	2A/	1D	2.f/
.	2B-i\	.	.
.	.	.	4g/
.	2A/	2.F/	2a/
.	2d\	.	2b-i\
.	.	4G/	.
=29	=29	=29	=29
0D]	2r	2A/	2a/
.	2D/	2B-i\	2dd\
.	2.F/	2A/	2r
.	.	2d\	2d/
.	4G/	.	.
1C	1E	1r	2e/
.	.	.	2g/
=30	=30	=30	=30
[0.D	0D	0A	1.f
.	.	.	2d/
.	1A	1F	1d
=31	=31	=31	=31
0D]	1B	1D	1r
.	0d	1A	1.f
1BB	.	1B	.
.	.	.	2g/
=32	=32	=32	=32
1r	1d	2r	2a/
.	.	2G/	2b\
1r	1c	1A	2cc\
.	.	.	2a/
1E	2B\	[1E	2g/
.	[2e\	.	[2cc\
=33	=33	=33	=33
0G	2e\]	1E]	2cc\]
.	2d\	.	2.b\
.	1B	1e	.
.	.	.	4g/
.	.	.	2f/
[1D	[1A	[1d	[1a
=34	=34	=34	=34
1D]	1A]	1d]	2a/]
.	.	.	2f/
1E	1G	2.B\	2.g/
.	.	4c\	4e/
1BB	1B	[1d	1d
=35	=35	=35	=35
!!linebreak:original
0D	0A	1d]	1r
.	.	1r	0d
1D	1F	1B	.
=36	=36	=36	=36
1C	0E	0.c	1e
0AA	.	.	2.c/
.	.	.	4d/
.	1A	.	2e/
.	.	.	[2f/
=37	=37	=37	=37
1r	2D/	2A/	2f/]
.	2F/	1A	1d
1r	1E	.	.
.	.	2G/	2c/
1BB	1D	1B	1d
=38	=38	=38	=38
[0.D	1r	1A	2.f/
.	.	.	4g/
.	0F	1.d	2a/
.	.	.	4g/
.	.	.	4a/
.	.	.	2b-i\
.	.	2c\	[2a/
=39	=39	=39	=39
1D]	1D	2d\	2a/]
.	.	1A	2f/
0C	0AA	.	1e
.	.	4G/	.
.	.	4F/	.
.	.	1E	1r
=40	=40	=40	=40
[0.D	1A	1D	1.f
.	1.F	1.A	.
.	.	.	2d/
.	.	.	2.d/
.	2D/	[2F#/	.
.	.	.	4c/
=41	=41	=41	=41
1D]	1.D	2F#/]	2d/
.	.	4E/	1B
.	.	4F#i/	.
0BB	.	2.G/	.
.	2BB/	.	2G/
.	.	4Fni/	.
.	1D	1D	2G/
.	.	.	4F/
.	.	.	4G/
=42	=42	=42	=42
!!linebreak:original
0.AAl	0.Cl	0.El	0.Al
!!LO:LB:i:g=z
=43||	=43||	=43||	=43||
*>B	*>B	*>B	*>B
*k[]	*k[]	*k[]	*k[]
*M3/1	*M3/1	*M3/1	*M3/1
*met(O)	*met(O)	*met(O)	*met(O)
!!section: Agnus Dei II
!!!OMD: Agnus Dei II
0.r	0.r	0.A	1.c#
.	.	.	2d/
.	.	.	2.e/
.	.	.	4f/
=44	=44	=44	=44
0.r	0.r	1c	1e
.	.	0d	1d
.	.	.	2.f/
.	.	.	4g/
=45	=45	=45	=45
0.r	0.r	1d	2a/
.	.	.	2b\
.	.	2e\	2cc\
.	.	2d\	1dd
.	.	2G/	.
.	.	[2c\	2g/
=46	=46	=46	=46
0.r	0.r	2c\]	2a/
.	.	2B\	1b
.	.	2G/	.
.	.	2A/	1a
.	.	1B	.
.	.	.	2g#i/
=47	=47	=47	=47
1r	1r	0.A	0.a
1r	1r	.	.
1D	1d	.	.
=48	=48	=48	=48
0.D	1.d	0.r	0.r
.	4c\	.	.
.	4B\	.	.
.	2A/	.	.
.	[2B\	.	.
=49	=49	=49	=49
!!pagebreak:original
1E	2B\]	0.r	0.r
.	1c	.	.
0F	.	.	.
.	2B\	.	.
.	2A/	.	.
.	[2d\	.	.
=50	=50	=50	=50
0G	2d\]	0.r	0.r
.	2e\	.	.
.	2d\	.	.
.	2B\	.	.
1D	2A/	.	.
.	[2d\	.	.
=51	=51	=51	=51
1E	4d\]	0.r	0.r
.	4B\	.	.
.	2c\	.	.
0F	2.F/	.	.
.	4G/	.	.
.	1A	.	.
=52	=52	=52	=52
0G	0G	1r	0.r
.	.	1r	.
1D	1r	1A	.
=53	=53	=53	=53
0G	0.r	1B	0.r
.	.	2c\	.
.	.	2.d\	.
1D	.	.	.
.	.	4c\	.
.	.	2A/	.
=54	=54	=54	=54
1E	0.r	2G/	0.r
.	.	1c	.
0C	.	.	.
.	.	2d\	.
.	.	1e	.
=55	=55	=55	=55
0D	0.r	2.d\	0.r
.	.	4c\	.
.	.	2A/	.
.	.	1B	.
1E	.	.	.
.	.	[2c\	.
=56	=56	=56	=56
!!linebreak:original
1BB	1r	4c\]	1r
.	.	4B\	.
.	.	1G	.
0AA	1r	.	1r
.	.	2F#i/	.
.	1C	2F#i/	1a
.	.	2E/	.
=57	=57	=57	=57
[0.GG	0D	0G	1.b
.	.	.	2g/
.	2.E/	1r	1g
.	4F/	.	.
=58	=58	=58	=58
0.GG]	1E	0G	1b
.	1D	.	1.dd
.	1G	1B	.
.	.	.	2cc\
=59	=59	=59	=59
1r	1A	1c	0cc
1r	1.F	1A	.
1AA	.	1r	1a
.	2E/	.	.
=60	=60	=60	=60
0.C	0E	1.c	1a
.	.	.	2g/
.	.	2d\	1g
.	[1G	1e	.
.	.	.	2e/
=61	=61	=61	=61
1C	1G]	1c	1e
0D	0F	2B\	1d
.	.	1B	.
.	.	.	1r
.	.	4A/	.
.	.	4B\	.
=62	=62	=62	=62
0.C	1G	2.c\	2.e/
.	.	4d\	4f/
.	1r	1.e	2g/
.	.	.	1a
.	2.E/	.	.
.	.	4d\	[2g/
.	4F/	4c\	.
=63	=63	=63	=63
!!linebreak:original
0.r	2G/	2B\	2g/]
.	2C/	2c\	2e/
.	2r	2d\	2d/
.	2D/	1d	2f/
.	1A	.	2e/
.	.	2c\	4d/
.	.	.	4c/
=64	=64	=64	=64
0.D	1D	1d	2B/
.	.	.	2.d/
.	1r	1r	.
.	.	.	4c/
.	.	.	2d/
.	1F	1d	2A/
.	.	.	2B/
=65	=65	=65	=65
0.C	2G/	1e	1c
.	1A	.	.
.	.	2.c\	1r
.	2B\	.	.
.	.	4d\	.
.	1c	1e	1g
=66	=66	=66	=66
0.D	0F	1f	2b-i\
.	.	.	1a
.	.	1d	.
.	.	.	4g/
.	.	.	4a/
.	1D	1r	2.f/
.	.	.	4e/
=67	=67	=67	=67
0.E	1C	0.r	1.e
.	1.G	.	.
.	.	.	4d/
.	.	.	4c/
.	.	.	1B
.	2A/	.	.
=68	=68	=68	=68
0BB	1B	[0.d	1r
.	1G	.	0b
[1GG	1r	.	.
=69	=69	=69	=69
1GG]	1B	1d]	1b
0AA	2.A/	0c	1.cc
.	4G/	.	.
.	1E	.	.
.	.	.	2b\
=70	=70	=70	=70
!!linebreak:original
1BB	1D	1B	4a/
.	.	.	4g/
.	.	.	2g/
0AA	1C	1r	2a/
.	.	.	1f#i
.	1r	1A	.
.	.	.	2e/
=71	=71	=71	=71
0.GG	1D	[0.B	1.g
.	1.G	.	.
.	.	.	2e/
.	.	.	[1d
.	4F/	.	.
.	4E/	.	.
=72	=72	=72	=72
1.BB	1.D	1B]	1d]
.	.	0G	1r
2AA/	2C/	.	.
1BB	1D	.	[1dd
=73	=73	=73	=73
1GG	2E/	1B	1dd]
.	1G	.	.
0AA	.	0c	1.cc
.	2F#i/	.	.
.	2F#i/	.	.
.	4E/	.	2a/
.	4F#i/	.	.
=74	=74	=74	=74
0.GGl	0.Gl	0.dl	0.bl
!!LO:LB:i:g=z
=75||	=75||	=75||	=75||
*>C	*>C	*>C	*>C
*k[]	*k[]	*k[]	*k[]
*M2/1	*M2/1	*M2/1	*M2/1
*met(C|)	*met(C|)	*met(C|)	*met(C|)
!!section: Agnus Dei III
!!!OMD: Agnus Dei III
0r	0r	0g	0b
=76	=76	=76	=76
0r	0r	1f	1a
.	.	1g	1g
=77	=77	=77	=77
!!pagebreak:original
0r	0r	0e	1b
.	.	.	1cc
=78	=78	=78	=78
0r	0r	[0d	1dd
.	.	.	[1b
=79	=79	=79	=79
0r	0r	0d]	2b\]
.	.	.	2a/
.	.	.	1a
=80	=80	=80	=80
0r	0r	1c	2r
.	.	.	1a
.	.	1d	.
.	.	.	2f/
=81	=81	=81	=81
0r	0r	2e\	2g/
.	.	2.c\	2a/
.	.	.	1cc
.	.	4B\	.
.	.	2c\	.
=82	=82	=82	=82
0r	0r	2d\	2b\
.	.	2A/	1a
.	.	1B	.
.	.	.	2g#i/
=83	=83	=83	=83
0r	0r	0A	1a
.	.	.	1r
=84	=84	=84	=84
!!linebreak:original
0r	0r	1r	1d
.	.	[1G	1e
=85	=85	=85	=85
0r	0r	1G]	1.g
.	.	[1A	.
.	.	.	4f/
.	.	.	4g/
=86	=86	=86	=86
0r	0r	1A]	1f
.	.	[1c	1e
=87	=87	=87	=87
0r	0r	2c\]	1.a
.	.	2d\	.
.	.	[1e	.
.	.	.	2g/
=88	=88	=88	=88
0r	0r	2e\]	1.g
.	.	2d\	.
.	.	[1d	.
.	.	.	2f/
=89	=89	=89	=89
0r	0r	1d]	1d
.	.	1c	1e
=90	=90	=90	=90
0r	0r	1d	2d/
.	.	.	2f/
.	.	2e\	2g/
.	.	2f\	[2a/
=91	=91	=91	=91
!!linebreak:original
0r	0r	1d	2a/]
.	.	.	2b\
.	.	2r	2a/
.	.	2d\	2dd\
=92	=92	=92	=92
0r	0r	2e\	2cc\
.	.	2B\	1b
.	.	1c	.
.	.	.	2a/
=93	=93	=93	=93
0r	0r	[0B	0b
=94	=94	=94	=94
[0BB	[0B	1B]	1r
.	.	[1d	1b
=95	=95	=95	=95
0BB]	1B]	1d]	1.dd
.	[1d	1D	.
.	.	.	2cc\
=96	=96	=96	=96
[0D	1d]	1.F	2.b\
.	.	.	4a/
.	1A	.	1a
.	.	2G/	.
=97	=97	=97	=97
0D]	1r	1A	2r
.	.	.	2d/
.	1B	1F	2f/
.	.	.	2g/
=98	=98	=98	=98
!!linebreak:original
0C	0c	1E	2.a/
.	.	.	4f/
.	.	1G	1e
=99	=99	=99	=99
0D	1A	0F	2.d/
.	.	.	4c/
.	[1d	.	1A
=100	=100	=100	=100
0BB	0d]	0D	1r
.	.	.	1d
=101	=101	=101	=101
1r	1B	0G	1e
1E	1G	.	[1g
=102	=102	=102	=102
0G	0B	1r	1g]
.	.	1d	[1d
=103	=103	=103	=103
0D	1A	0d	1d]
.	1F	.	1f
=104	=104	=104	=104
1E	1G	0B	1e
1BB	[1D	.	1d
=105	=105	=105	=105
!!pagebreak:original
[0D	1D]	0A	1.f
.	1A	.	.
.	.	.	2g/
=106	=106	=106	=106
0D]	1F	1r	2b-i\
.	.	.	1a
.	1D	[1A	.
.	.	.	4g/
.	.	.	4f/
=107	=107	=107	=107
1C	1r	2A/]	0e
.	.	2G/	.
1AA	1C	2F/	.
.	.	2E/	.
=108	=108	=108	=108
1BB	1D	2D/	0r
.	.	1F#	.
[1D	1BB	.	.
.	.	2G/	.
=109	=109	=109	=109
1D]	0AA	2A/	0r
.	.	2F#i/	.
1C#i	.	1E	.
=110	=110	=110	=110
[0D	1.F	0D	1r
.	.	.	[1a
.	2G/	.	.
=111	=111	=111	=111
0D]	2A/	1r	1a]
.	2B-i\	.	.
.	[1A	1D	1f
=112	=112	=112	=112
!!linebreak:original
0BB	2A/]	0D	2g/
.	4G/	.	2f/
.	4F/	.	.
.	1G	.	1d
=113	=113	=113	=113
0AA	1A	1E	0c#
.	1E	[1A	.
=114	=114	=114	=114
0D	1r	1A]	1d
.	1A	1d	1f
=115	=115	=115	=115
1r	[0A	1c	1e
1D	.	1r	[1d
=116	=116	=116	=116
0D	0A]	0d	2d/]
.	.	.	2e/
.	.	.	1f
=117	=117	=117	=117
1E	1r	2B\	1g
.	.	1c	.
1F	1A	.	1a
.	.	2d\	.
=118	=118	=118	=118
[0G	1.B	2e\	1r
.	.	1d	.
.	.	.	[1d
.	2c\	2G/	.
=119	=119	=119	=119
!!linebreak:original
1G]	0d	2B\	2d/]
.	.	2G/	2e/
1D	.	1A	1f
=120	=120	=120	=120
1E	1r	1G	1g
1F	1A	1D	1a
=121	=121	=121	=121
0G	1.B	2r	1d
.	.	2d\	.
.	.	2B\	1e
.	2c\	2G/	.
=122	=122	=122	=122
1D	1d	1A	1f
[1G	1G	[1B	1g
=123	=123	=123	=123
1G]	0d	2B\]	1d
.	.	2G/	.
1D	.	1A	1f
=124	=124	=124	=124
1E	1B	1G	1.g
1C	1c	1r	.
.	.	.	[2a/
=125	=125	=125	=125
0D	0A	0d	2a/]
.	.	.	2f/
.	.	.	2f/
.	.	.	2e/
=126	=126	=126	=126
!!linebreak:original
0E	1r	1c	1.g
.	1G	1B	.
.	.	.	4f/
.	.	.	4e/
=127	=127	=127	=127
1BB	0G	1B	0d
1GG	.	1d	.
=128	=128	=128	=128
0AA	0F	1c	1r
.	.	1A	1a
=129	=129	=129	=129
1r	1E	1B	1g
1C	[1C	[1c	[1e
=130	=130	=130	=130
0C	1C]	1c]	2e/]
.	.	.	2c/
.	1E	1G	1c
=131	=131	=131	=131
0D	2F/	1B	1r
.	2G/	.	.
.	[1A	1A	1f
=132	=132	=132	=132
0C	2A/]	2c\	0e
.	4G/	2B\	.
.	4F/	.	.
.	1E	2G/	.
.	.	[2A/	.
=133	=133	=133	=133
!!pagebreak:original
0D	1F	2A/]	1d
.	.	2c\	.
.	1D	2B\	1f
.	.	2A/	.
=134	=134	=134	=134
0C	0r	2.c\	1g
.	.	4d\	.
.	.	1e	[1a
=135	=135	=135	=135
0D	0A	0d	2a/]
.	.	.	2e/
.	.	.	1f
=136	=136	=136	=136
0E	1.G	1r	0g
.	.	1B	.
.	4F/	.	.
.	4E/	.	.
=137	=137	=137	=137
1BB	1D	0B	1r
1GG	[1E	.	1b
=138	=138	=138	=138
0AA	1E]	1A	1cc
.	1F	1c	1a
=139	=139	=139	=139
0BB	0G	1d	2g/
.	.	.	2f/
.	.	1B	1d
=140	=140	=140	=140
!!linebreak:original
0AA	1r	1c	1e
.	1A	2A/	1c
.	.	2F/	.
=141	=141	=141	=141
0GG	1B-	2.G/	2e/
.	.	.	1g
.	.	4F/	.
.	[1G	[1D	.
.	.	.	2f/
=142	=142	=142	=142
1BB	1G]	1D]	1d
1AA	1A	1E	1c
=143	=143	=143	=143
1BB	0D	2r	1d
.	.	2D/	.
1GG	.	1G	1B
=144	=144	=144	=144
0AA	2C/	2F/	1c
.	1E	2G/	.
.	.	1A	2r
.	2F/	.	2c/
=145	=145	=145	=145
[0GG	2.G/	2.B\	2e/
.	.	.	2f/
.	4A/	4c\	.
.	2B\	1d	1g
.	2c\	.	.
=146	=146	=146	=146
0GG]	1d	1G	2d/
.	.	.	2.g/
.	2.G/	1r	.
.	.	.	4a/
.	.	.	[2b\
.	4A/	.	.
=147	=147	=147	=147
!!linebreak:original
0r	1B	1d	4b\]
.	.	.	4cc\
.	.	.	2dd\
.	1A	1e	2cc\
.	.	.	[2a/
=148	=148	=148	=148
0r	2r	1c	4a/]
.	.	.	4g/
.	2A/	.	2a/
.	2G/	2B\	1e
.	[2A/	2A/	.
=149	=149	=149	=149
0r	2A/]	2.c\	2a/
.	1E	.	4g/
.	.	4B\	4a/
.	.	2G/	2b\
.	2A/	2c\	[2a/
=150	=150	=150	=150
0r	4G/	1d	4a/]
.	4A/	.	4f/
.	2B\	.	2g/
.	2.A/	2c\	2a/
.	.	2A/	2d/
.	4F/	.	.
=151	=151	=151	=151
0r	2G/	2B\	1e
.	2A/	2c\	.
.	2D/	2d\	2f/
.	[2A/	[2c\	4g/
.	.	.	4f/
=152	=152	=152	=152
0r	2A/]	2c\]	4e/
.	.	.	4d/
.	2F/	1A	1d
.	1E	.	.
.	.	2G/	2c#i/
=153	=153	=153	=153
0Dl	0Dl	0Al	0dl
==	==	==	==
*-	*-	*-	*-
!!!RDF**kern: l=long note in original notation
!!!RDF**kern: i=editorial accidental
!!!ENC:	Will Watson 14/03/2012
!!!END:	2012/03/14/
!!!EED:	Jesse Rodin
!!!EEV:	2012/03/17/
!!!ONB:	Translated from MusicXML and edited on 2012/03/17/ by Craig Sapp
!!muse2ps: T^@{OPR}^u^@{ONM}{. }@{OTL}^C^@{COM}^i2I100v85,90,85,150Q16
